!!!SOCIAL_FUNCTION:	songs of personal narratives concerning war
!!!PDT:	1918

Specific Region: Dakotas, Minnesota, Montana, Nebraska
!!!REG: Dakotas and Montana
!!!LING_GROUP: Siouan
!!!LANG: Tone
!!!OTL@ENG: They Deserted Their Leader
!!!ONM: No. 167
**kern
*Imale
*clefF4
*k[b-]
*M2/4
*MM96
8.d
16e-
=1
4d
8.e-
16d
=2
4d
8.A
16d
=3||
*M3/4
2A
8.d
16A
=4||
*M2/4
4A
8.G
16A
=5||
*M3/4
2G
8.A
16G
=6||
*M2/4
16G
8.F
8.D
16F
=7||
*M3/4
4F
4F
8.G
16F
=8||
*M2/4
16F
8.D
8.D
16D
=9
2D
=10
2D
=11||
*M3/4
16d
8.A
8.A
16A
8.d
16B-
=12||
*M2/4
8A
16A
16A
8.G
16G
=13||
*M3/4
8.G
16G
4G
8.A
16G
=14||
*M2/4
16G
8.F
8.D
16F
=15||
*M3/4
4F
4F
16G
8.F
=16||
*M2/4
16F
8.D
8.D
16D
=17
2D
=18
4D
4r
==
*-
!!!CNT: Native American -- Sioux
!!!MRD: 1911/07//-1914///
!!!OCL: Frances Densmore
!!!YOR1: Teton Sioux Music, Bulletin 61,
!!!YOR2: Bureau of American Ethnology, Smithsonian Institution
!!!PPR: Government Printing Office
!!!PPP: Washington, D.C.
!!!PDT: 1918///
!!!ENC: Craig Stuart Sapp
!!!END: 2002/03/25/
!!!EEV: 2002/03/31/
!!!AGN: War Song/Song of Personal Narrative Concerning War
!!!MPN@@SIO: Wangbli'-waha'chungka
!!!MPN@ENG: Eagle Shield
!!!TXO: Teton Sioux
!!!MLC: Standing Rock Reservation, South Dakota, United States of America
!!!ARL: 45.9/-100.7#
!!!catalog: Catalogue No. 520
!!!PPG: 398
!!!EFL: 172/245
!!!VTS: 1861488719
